X:68
T:Sailor's Hornpipe
T:College Hornpipe
S:Bernie Waugh
R:Reel
M:2/4
L:1/16
K:G
|:GF|\
"G"G2G,2 G,2DC|B,G,B,D GBAG|"A"A2A,2 A,2AG|"D"FDFA d2ef|
"G"gfed "C"edcB|"Em"cBAG "A7"AGFE|"D7"DGFA GBAc|"G"B2G2 G2:|
|:dc|\
"G"Bdgd Bdgd|"C"e2c2 c2ed|"A"^ce"?"ge ceae|"D"f2d2 d2ef|
"G"gfed "C"edcB|"Em"cBAG "A7"AGFE|"D7"DGFA GBAc|"G"B2G2 G2:|

